preferences/22/preferences-system-network-server-mail.svg

<?xml version="1.0" encoding="UTF-8" standalone="no"?>
<!-- Created with Inkscape (http://www.inkscape.org/) -->

<svg
   width="22"
   height="22"
   version="1.1"
   viewBox="0 0 22 22"
   id="svg22"
   sodipodi:docname="preferences-system-network-server-mail.svg"
   inkscape:version="1.1.2 (0a00cf5339, 2022-02-04)"
   xmlns:inkscape="http://www.inkscape.org/namespaces/inkscape"
   xmlns:sodipodi="http://sodipodi.sourceforge.net/DTD/sodipodi-0.dtd"
   xmlns:xlink="http://www.w3.org/1999/xlink"
   xmlns="http://www.w3.org/2000/svg"
   xmlns:svg="http://www.w3.org/2000/svg">
  <sodipodi:namedview
     id="namedview24"
     pagecolor="#ffffff"
     bordercolor="#666666"
     borderopacity="1.0"
     inkscape:showpageshadow="2"
     inkscape:pageopacity="0.0"
     inkscape:pagecheckerboard="0"
     inkscape:deskcolor="#d1d1d1"
     showgrid="false"
     inkscape:zoom="25.62"
     inkscape:cx="11.007026"
     inkscape:cy="16.783763"
     inkscape:window-width="3440"
     inkscape:window-height="1356"
     inkscape:window-x="0"
     inkscape:window-y="0"
     inkscape:window-maximized="1"
     inkscape:current-layer="g871"
     inkscape:pageshadow="2" />
  <defs
     id="defs12">
    <linearGradient
       inkscape:collect="always"
       id="linearGradient917">
      <stop
         style="stop-color:#000000;stop-opacity:0.99607843"
         offset="0"
         id="stop913" />
      <stop
         style="stop-color:#353a3f;stop-opacity:0.99607843"
         offset="1"
         id="stop915" />
    </linearGradient>
    <linearGradient
       id="linearGradient1005-3-3"
       x1="5.2535"
       x2="9.3823996"
       y1="15.383"
       y2="2.9421"
       gradientTransform="matrix(0.99999,0,0,0.99999,1.632,-0.61743)"
       gradientUnits="userSpaceOnUse">
      <stop
         stop-color="#fa8200"
         offset="0"
         id="stop2" />
      <stop
         stop-color="#ff9600"
         offset=".36953"
         id="stop4" />
      <stop
         stop-color="#ffb400"
         offset="1"
         id="stop6" />
    </linearGradient>
    <filter
       id="filter4014"
       x="-0.062499933"
       y="-0.057692993"
       width="1.1249999"
       height="1.115386"
       color-interpolation-filters="sRGB">
      <feGaussianBlur
         stdDeviation="1.093751"
         id="feGaussianBlur9" />
    </filter>
    <linearGradient
       inkscape:collect="always"
       xlink:href="#linearGradient3487"
       id="linearGradient3403"
       gradientUnits="userSpaceOnUse"
       x1="6.9491749"
       y1="4.5549412"
       x2="11.215498"
       y2="59.052471" />
    <linearGradient
       id="linearGradient3487">
      <stop
         style="stop-color:#32373c;stop-opacity:1"
         offset="0"
         id="stop3481" />
      <stop
         id="stop3483"
         offset="0.36804965"
         style="stop-color:#1a1a1a;stop-opacity:1" />
      <stop
         style="stop-color:#31363b;stop-opacity:1"
         offset="1"
         id="stop3485" />
    </linearGradient>
    <linearGradient
       inkscape:collect="always"
       xlink:href="#linearGradient20604"
       id="linearGradient20558"
       gradientUnits="userSpaceOnUse"
       x1="25.802212"
       y1="20.373846"
       x2="25.111048"
       y2="58.912758" />
    <linearGradient
       id="linearGradient20604">
      <stop
         id="stop20598"
         offset="0"
         style="stop-color:#3d3d3d;stop-opacity:1" />
      <stop
         style="stop-color:#000000;stop-opacity:1"
         offset="0.61772454"
         id="stop20600" />
      <stop
         id="stop20602"
         offset="1"
         style="stop-color:#3d3d3d;stop-opacity:1" />
    </linearGradient>
    <filter
       inkscape:collect="always"
       style="color-interpolation-filters:sRGB"
       id="filter20720"
       x="-0.017024755"
       y="-0.016457183"
       width="1.0340491"
       height="1.0329144">
      <feGaussianBlur
         inkscape:collect="always"
         stdDeviation="0.14745661"
         id="feGaussianBlur20722" />
    </filter>
    <linearGradient
       gradientTransform="translate(0.36067797,-0.13016949)"
       xlink:href="#linearGradient4555"
       id="linearGradient4557"
       x1="43.499737"
       y1="64.011795"
       x2="44.141731"
       y2="0.30621234"
       gradientUnits="userSpaceOnUse" />
    <linearGradient
       id="linearGradient4555">
      <stop
         style="stop-color:#141618;stop-opacity:1"
         offset="0"
         id="stop4551" />
      <stop
         id="stop4559"
         offset="0.51820582"
         style="stop-color:#686868;stop-opacity:1" />
      <stop
         style="stop-color:#31363b;stop-opacity:1"
         offset="1"
         id="stop4553" />
    </linearGradient>
    <filter
       style="color-interpolation-filters:sRGB"
       id="filter4601"
       x="-0.030244762"
       width="1.0604895"
       y="-0.030100647"
       height="1.0602013">
      <feGaussianBlur
         stdDeviation="0.014790289"
         id="feGaussianBlur4603" />
    </filter>
    <linearGradient
       inkscape:collect="always"
       xlink:href="#linearGradient917"
       id="linearGradient919"
       x1="7.400631"
       y1="41.743092"
       x2="33.063145"
       y2="7.1074457"
       gradientUnits="userSpaceOnUse"
       gradientTransform="matrix(0.44375036,0,0,0.44375036,0.42123031,0.35191684)" />
    <linearGradient
       id="b"
       gradientTransform="matrix(0.47153186,0,0,0.47153186,-1.4657518,-0.91055966)"
       gradientUnits="userSpaceOnUse"
       x2="0"
       y1="44"
       y2="4">
      <stop
         offset="0"
         stop-color="#1d1e1e"
         id="stop2-7" />
      <stop
         offset="1"
         stop-color="#44484c"
         id="stop4-6" />
    </linearGradient>
    <linearGradient
       id="c"
       x1="6"
       x2="6"
       xlink:href="#a"
       y1="5"
       y2="4" />
    <linearGradient
       id="a"
       gradientUnits="userSpaceOnUse"
       x2="0"
       y1="507.79999"
       y2="506.79999">
      <stop
         offset="0"
         stop-color="#3da103"
         id="stop8" />
      <stop
         offset="1"
         stop-color="#7ddf07"
         id="stop10" />
    </linearGradient>
    <linearGradient
       id="d"
       x1="6"
       x2="6"
       xlink:href="#a"
       y1="16"
       y2="15" />
    <linearGradient
       id="linearGradient891"
       gradientUnits="userSpaceOnUse"
       x2="0"
       y1="507.79999"
       y2="506.79999">
      <stop
         offset="0"
         stop-color="#3da103"
         id="stop887" />
      <stop
         offset="1"
         stop-color="#7ddf07"
         id="stop889" />
    </linearGradient>
    <linearGradient
       id="e"
       x1="6"
       x2="6"
       xlink:href="#a"
       y1="27"
       y2="26" />
    <linearGradient
       id="linearGradient898"
       gradientUnits="userSpaceOnUse"
       x2="0"
       y1="507.79999"
       y2="506.79999">
      <stop
         offset="0"
         stop-color="#3da103"
         id="stop894" />
      <stop
         offset="1"
         stop-color="#7ddf07"
         id="stop896" />
    </linearGradient>
    <linearGradient
       id="f"
       gradientUnits="userSpaceOnUse"
       x1="5"
       x2="18"
       y1="12"
       y2="25"
       gradientTransform="matrix(0.67361695,0,0,0.67361695,-0.99421991,-0.16958102)">
      <stop
         offset="0"
         stop-color="#292c2f"
         id="stop15" />
      <stop
         offset="1"
         stop-opacity="0"
         id="stop17" />
    </linearGradient>
  </defs>
  <rect
     style="display:inline;fill:url(#linearGradient919);fill-opacity:1;fill-rule:evenodd;stroke:none;stroke-width:0.411721;stroke-linejoin:round;stroke-miterlimit:7.8"
     id="rect1192"
     width="18.675058"
     height="18.953514"
     x="1.824773"
     y="1.6913729"
     ry="0"
     inkscape:label="arriere" />
  <g
     id="g871"
     transform="matrix(0.87137958,0,0,0.9271263,3.4116432,1.1143731)">
    <path
       d="M 1.0266309,4.5457376 H 18.540672 V 15.997226 H 1.0266309 Z"
       fill="#111213"
       id="path20"
       style="stroke-width:0.673617" />
    <path
       d="M 1.0266309,1.1776529 V 20.038927 H 18.540672 V 1.1776529 Z m 0.673617,4.0417017 H 17.867055 V 7.9138224 H 1.7002479 Z m 0,7.4097864 H 17.867055 v 2.694468 H 1.7002479 Z"
       fill="url(#b)"
       id="path22"
       style="fill:url(#b);stroke-width:0.673617" />
    <path
       d="M 1.0266309,19.36531 H 18.540672 v 0.673617 H 1.0266309 Z"
       opacity="0.2"
       id="path24"
       style="stroke-width:0.673617" />
    <g
       stroke-width="0.7"
       id="g32"
       transform="matrix(0.67361695,0,0,0.67361695,-0.99421991,-0.16958102)">
      <path
         d="M 5,4 H 7 V 5 H 5 Z"
         fill="url(#c)"
         id="path26"
         style="fill:url(#c)" />
      <path
         d="m 5,15 h 2 v 1 H 5 Z"
         fill="url(#d)"
         id="path28"
         style="fill:url(#d)" />
      <path
         d="m 5,26 h 2 v 1 H 5 Z"
         fill="url(#e)"
         id="path30"
         style="fill:url(#e)" />
    </g>
    <path
       d="M 1.7002479,7.9138224 6.4155665,12.629141 H 17.867055 v 2.694468 H 9.1100343 l 4.7153187,4.715318 h 4.715319 V 8.5874393 L 17.867055,7.9138224 Z"
       fill="url(#f)"
       fill-rule="evenodd"
       opacity="0.4"
       id="path34"
       style="fill:url(#f);stroke-width:0.673617" />
    <rect
       fill="#eff0f1"
       height="10.777871"
       rx="1.5051311"
       width="12.041049"
       x="8.5204735"
       y="9.2610559"
       id="rect36"
       style="stroke-width:0.712" />
    <path
       d="M 9.6255722,10.459107 V 19.17788 H 20.448223 v -8.718773 z m 1.3195898,0.726565 h 8.183471 l -4.091735,3.845705 z m -0.546544,0.51368 3.041165,2.858304 -3.041165,3.334205 z m 9.276559,0 v 6.193962 l -3.041165,-3.335658 z m -5.687304,3.373439 1.049025,0.985948 1.049024,-0.985948 3.08059,3.378524 h -8.260775 z"
       fill="#232629"
       id="path38"
       style="stroke-width:0.749446" />
  </g>
  <path
     style="display:inline;mix-blend-mode:normal;fill:url(#linearGradient3403);fill-opacity:1;stroke:url(#linearGradient20558);stroke-width:1.16242;stroke-linecap:butt;stroke-linejoin:round;stroke-miterlimit:4;stroke-dasharray:none;stroke-opacity:1;filter:url(#filter20720)"
     d="M 4.7043071,3.9814882 4.6913695,60.80196 H 58.59546 l 1.022155,-2.866369 c 0,0 -23.87537,0.766388 -32.844441,-4.140386 C 16.257548,48.042344 11.401114,4.0978197 11.401114,4.0978197 Z"
     id="path1686"
     sodipodi:nodetypes="ccccscc"
     transform="matrix(0.33364689,0,0,0.33364689,0.4654743,0.36296017)"
     inkscape:label="folder" />
  <rect
     style="display:inline;fill:none;fill-opacity:1;stroke:url(#linearGradient4557);stroke-width:3.71366;stroke-linejoin:round;stroke-miterlimit:7.8;stroke-dasharray:none;stroke-opacity:0.995146;filter:url(#filter4601)"
     id="rect4539"
     width="62.567089"
     height="62.866646"
     x="1.0323594"
     y="0.59551275"
     ry="6.2447233"
     rx="5.8029528"
     transform="matrix(0.31255465,0,0,0.31191759,1.0260553,1.037159)"
     inkscape:label="contour" />
</svg>

<svg width="22" height="22" version="1.1" viewBox="0 0 22 22" xmlns="http://www.w3.org/2000/svg" xmlns:xlink="http://www.w3.org/1999/xlink">
<defs>
<linearGradient id="linearGradient3403" x1="6.9492" x2="11.215" y1="4.5549" y2="59.052" gradientUnits="userSpaceOnUse">
<stop style="stop-color:#32373c" offset="0"/>
<stop style="stop-color:#1a1a1a" offset=".36805"/>
<stop style="stop-color:#31363b" offset="1"/>
</linearGradient>
<linearGradient id="linearGradient20558" x1="25.802" x2="25.111" y1="20.374" y2="58.913" gradientUnits="userSpaceOnUse">
<stop style="stop-color:#3d3d3d" offset="0"/>
<stop offset=".61772"/>
<stop style="stop-color:#3d3d3d" offset="1"/>
</linearGradient>
<linearGradient id="linearGradient4557" x1="43.5" x2="44.142" y1="64.012" y2=".30621" gradientTransform="translate(.36068 -.13017)" gradientUnits="userSpaceOnUse">
<stop style="stop-color:#141618" offset="0"/>
<stop style="stop-color:#686868" offset=".51821"/>
<stop style="stop-color:#31363b" offset="1"/>
</linearGradient>
<linearGradient id="linearGradient919" x1="7.4006" x2="33.063" y1="41.743" y2="7.1074" gradientTransform="matrix(.44375 0 0 .44375 .42123 .35192)" gradientUnits="userSpaceOnUse">
<stop style="stop-opacity:.99608" offset="0"/>
<stop style="stop-color:#353a3f;stop-opacity:.99608" offset="1"/>
</linearGradient>
<linearGradient id="b" x2="0" y1="44" y2="4" gradientTransform="matrix(.47153 0 0 .47153 -1.4658 -.91056)" gradientUnits="userSpaceOnUse">
<stop stop-color="#1d1e1e" offset="0"/>
<stop stop-color="#44484c" offset="1"/>
</linearGradient>
<linearGradient id="c" x1="6" x2="6" y1="5" y2="4" xlink:href="#a"/>
<linearGradient id="a" x2="0" y1="507.8" y2="506.8" gradientUnits="userSpaceOnUse">
<stop stop-color="#3da103" offset="0"/>
<stop stop-color="#7ddf07" offset="1"/>
</linearGradient>
<linearGradient id="d" x1="6" x2="6" y1="16" y2="15" xlink:href="#a"/>
<linearGradient id="e" x1="6" x2="6" y1="27" y2="26" xlink:href="#a"/>
<linearGradient id="f" x1="5" x2="18" y1="12" y2="25" gradientTransform="matrix(.67362 0 0 .67362 -.99422 -.16958)" gradientUnits="userSpaceOnUse">
<stop stop-color="#292c2f" offset="0"/>
<stop stop-opacity="0" offset="1"/>
</linearGradient>
</defs>
<rect x="1.8248" y="1.6914" width="18.675" height="18.954" ry="0" style="fill-rule:evenodd;fill:url(#linearGradient919)"/>
<g transform="matrix(.87138 0 0 .92713 3.4116 1.1144)">
<path d="m1.0266 4.5457h17.514v11.451h-17.514z" fill="#111213" style="stroke-width:.67362"/>
<path d="m1.0266 1.1777v18.861h17.514v-18.861zm0.67362 4.0417h16.167v2.6945h-16.167zm0 7.4098h16.167v2.6945h-16.167z" fill="url(#b)" style="fill:url(#b);stroke-width:.67362"/>
<path d="m1.0266 19.365h17.514v0.67362h-17.514z" opacity=".2" style="stroke-width:.67362"/>
<g transform="matrix(.67362 0 0 .67362 -.99422 -.16958)" stroke-width=".7">
<path d="m5 4h2v1h-2z" fill="url(#c)" style="fill:url(#c)"/>
<path d="m5 15h2v1h-2z" fill="url(#d)" style="fill:url(#d)"/>
<path d="m5 26h2v1h-2z" fill="url(#e)" style="fill:url(#e)"/>
</g>
<path d="m1.7002 7.9138 4.7153 4.7153h11.451v2.6945h-8.757l4.7153 4.7153h4.7153v-11.451l-0.67362-0.67362z" fill="url(#f)" fill-rule="evenodd" opacity=".4" style="fill:url(#f);stroke-width:.67362"/>
<rect x="8.5205" y="9.2611" width="12.041" height="10.778" rx="1.5051" fill="#eff0f1" style="stroke-width:.712"/>
<path d="m9.6256 10.459v8.7188h10.823v-8.7188zm1.3196 0.72656h8.1835l-4.0917 3.8457zm-0.54654 0.51368 3.0412 2.8583-3.0412 3.3342zm9.2766 0v6.194l-3.0412-3.3357zm-5.6873 3.3734 1.049 0.98595 1.049-0.98595 3.0806 3.3785h-8.2608z" fill="#232629" style="stroke-width:.74945"/>
</g>
<path transform="matrix(.33365 0 0 .33365 .46547 .36296)" d="m4.7043 3.9815-0.012938 56.82h53.904l1.0222-2.8664s-23.875 0.76639-32.844-4.1404c-10.516-5.7529-15.372-49.697-15.372-49.697z" style="fill:url(#linearGradient3403);mix-blend-mode:normal;stroke-linejoin:round;stroke-width:1.1624;stroke:url(#linearGradient20558)"/>
<rect transform="matrix(.31255 0 0 .31192 1.0261 1.0372)" x="1.0324" y=".59551" width="62.567" height="62.867" rx="5.803" ry="6.2447" style="fill:none;stroke-linejoin:round;stroke-miterlimit:7.8;stroke-opacity:.99515;stroke-width:3.7137;stroke:url(#linearGradient4557)"/>
</svg>
